X:1
T:Title
%%score ( 1 2 ) { 3 | 4 }
L:1/8
Q:1/4=95
M:6/8
K:E
V:1 treble nm="Grand Piano, Soprano"
V:2 treble 
V:3 bass nm="Choir Pad, Our Better Home Beyond"
V:4 bass 
V:1
 E [EG]2 [EG][FA][EG] | [FA] [GB]2 [FA] [EG]2 | E [DF]2 [DF][DF][CE] | [DF] [EG]2- [EG] [GB]2 | %4
w: By~William~Howard~Doane * * * *||||
 E [EG]2 [EG][FA][EG] | [FA] [Ac]2 [GB] [EG]2 | E [DF]2 [DF][FA][EG] | [DF] E2- E2- E/ z/ | %8
w: ||||
 [GB]3 .[EG]2 G | [FA]3- [FA]3/2 z/ [FA] | [FA][EG][DF] [GB]2 [FA] | [EG]3- [EG]3/2 z/ [EB] | %12
w: ||||
 [Ec]2 [Ec] [Ee][Ed][Ec] | [Ec][EB][EB] [EB]2 [EG] | [DF][DF][DF] [FA][EG][DF] | E6- | E3 z3 |] %17
w: |||||
V:2
 x6 | x6 | x6 | x6 | x6 | x6 | x6 | x6 | z3 z E2 | x6 | x6 | x6 | x6 | x6 | x6 | x6 | x6 |] %17
V:3
 G, B,2 B, B,2 | B, B,2 B, B,2 | G, B,2 B, B,2 | B, B,2- B,2- B,/ z/ | G, B,2 B, B,2 | %5
 B, E2 E B,2 | G, B,2 B, B,2 | A, G,2- G,2- G,/ z/ | B,3 B,G,B, | B,B,B, B,2 B, | B,B,B, B,2 B, | %11
 B,3- B,3/2 z/ G, | A,2 A, CB,A, | A,G,G, G,2 B, | B,B,B, B,2 A, | G,6- | G,3 z3 |] %17
V:4
 E, E,2 E, E,2 | E, E,2 E, E,2 | E, B,,2 B,, B,,2 | B,, E,2- E,2- E,/ z/ | E, E,2 E, E,2 | %5
 E, E,2 E, E,2 | E, B,,2 B,, B,,2 | B,, E,2- E,2- E,/ z/ | E,3 E,3 | B,,B,,B,, B,,2 B,, | %10
 B,,B,,B,, B,,2 B,, | E,3- E,3/2 z/ E, | A,,2 A,, A,,A,,C, | E,E,E, E,2 E, | B,,B,,B,, B,,2 B,, | %15
 E,6- | E,3 z3 |] %17

